X: 1
T: a Trip to Tunbridge
O: 1793
R: march
N: Variant of Green Grow the Rashes O.
Z: 2014 John Chambers <jc:trillian.mit.edu>
M: 2/4
L: 1/16
K: Em
B2 |\
"Em"GGG2 B3A | "Em"B2G2 G2B2 | "Am"AAA2 "(E7)"e3d | "Am"e2A2 A2B2 |\
"C"c6 e2 | "D"dcBA "Em"B2G2 | "Am"AAA2 "(B7)"B3A | "Em"G2E2 E2 :|
|: B2 |\
"G"GGG2 g3f | "G"g2d2 d2g2 | "Am"eee2 a3g | a2e2 e3g |\
"C"g2a2 e2=f2 | "G"dcBA B2G2 | "Am(D)"AAA2 "(B7)"B3A | "Em"G2E2 E2 :|
